assets/img/bg.svg

<svg xmlns="http://www.w3.org/2000/svg" width="1835" height="821" fill="none"><rect width="1790" height="792" x="45" fill="#1C3F39" rx="30"/><path fill="#C9F31D" d="M1193.62 91.214c-9.27-15.369-32.16-18.556-16.79-27.828 15.37-9.272 41.31-7.927 50.58 7.442 9.27 15.369-1.63 38.942-17 48.214-15.37 9.272-7.52-12.459-16.79-27.828Z"/><path fill="#fff" fill-opacity=".16" d="M374.5 725.5c0 16.569-13.431 30-30 30-16.569 0-30-13.431-30-30 0-16.568 13.431-30 30-30 16.569 0 30 13.432 30 30Z"/><path fill="#C9F31D" fill-opacity=".8" d="M93 72c0-5.523 4.477-10 10-10h55.984c6.57 0 11.355 6.228 9.662 12.577l-10.788 40.457a10.004 10.004 0 0 1-6.559 6.93l-45.195 14.757C99.64 138.832 93 134.015 93 127.215V72Z"/><path stroke="#C9F31D" stroke-dasharray="16 16" stroke-opacity=".3" d="m57.959 788.079.803-3.139c20.451-79.904 89.372-138.013 171.583-144.666l21.55-1.744c54.59-4.417 102.811-37.278 126.889-86.47l8.672-25.732c13.355-39.627 47.141-68.9 88.266-76.476l16.572-3.053c34.027-6.269 61.313-31.732 69.917-65.244l3.615-14.082c8.863-34.522 41.668-57.348 77.118-53.659l4.556.474c35.986 3.745 68.475-21.68 73.491-57.511l1.99-14.213c5.077-36.26 42.986-57.998 76.844-44.064 29.713 12.227 63.603-2.974 74.23-33.297l2.869-8.186C885.954 131.25 910.279 114 937.583 114H954"/><path fill="#C9F31D" fill-opacity=".3" fill-rule="evenodd" d="m948.421 100.185 40.383 2.001c.37.35.427.751.17 1.204a79.131 79.131 0 0 1-3.579 4.467c-1.007.031-1.277-.396-.811-1.282a47.51 47.51 0 0 1 1.766-2.212c.064-.058.067-.119.009-.183a4912.436 4912.436 0 0 1-22.999 6.447l12.23 7.55c2.345-3 4.701-5.995 7.07-8.984.977-.146 1.28.252.907 1.194-2.43 3.152-4.871 6.296-7.322 9.432a.88.88 0 0 1-.918-.046 387.675 387.675 0 0 0-6.07-3.749 728.509 728.509 0 0 0-9.311 5.93c-.654.224-1.057.005-1.209-.658-.464-4.779-.948-9.554-1.452-14.326l-9.022-5.459c-.363-.504-.31-.946.158-1.326Zm3.318 1.728c9.138.345 18.286.783 27.445 1.314-6.959.823-13.916 1.659-20.872 2.506a437.372 437.372 0 0 1-6.573-3.82Zm26.447 2.874a.762.762 0 0 1 .365.064l-17.353 4.842a.767.767 0 0 0-.447.667l-1.007 5.468a225.03 225.03 0 0 1-.903-8.689c6.466-.739 12.914-1.523 19.345-2.352Zm-16.163 6.832a136.687 136.687 0 0 1 5.714 3.502 417.38 417.38 0 0 1-7.129 4.613c.425-2.695.897-5.4 1.415-8.115Z" clip-rule="evenodd" opacity=".939"/></svg>

<svg width="1835" height="821" viewBox="0 0 1835 821" fill="none" xmlns="http://www.w3.org/2000/svg">
<rect x="45" width="1790" height="792" rx="30" fill="#1C3F39"/>
<path d="M1193.62 91.214C1184.35 75.845 1161.46 72.6579 1176.83 63.3859C1192.2 54.114 1218.14 55.459 1227.41 70.828C1236.68 86.197 1225.78 109.77 1210.41 119.042C1195.04 128.314 1202.89 106.583 1193.62 91.214Z" fill="#C9F31D"/>
<path d="M374.5 725.5C374.5 742.069 361.069 755.5 344.5 755.5C327.931 755.5 314.5 742.069 314.5 725.5C314.5 708.932 327.931 695.5 344.5 695.5C361.069 695.5 374.5 708.932 374.5 725.5Z" fill="white" fill-opacity="0.16"/>
<path d="M93 72C93 66.4772 97.4772 62 103 62H158.984C165.554 62 170.339 68.2282 168.646 74.5766L157.858 115.034C156.985 118.305 154.517 120.913 151.299 121.964L106.104 136.721C99.6401 138.832 93 134.015 93 127.215V72Z" fill="#C9F31D" fill-opacity="0.8"/>
<path d="M57.9586 788.079L58.762 784.94C79.2131 705.036 148.134 646.927 230.345 640.274L251.895 638.53C306.485 634.113 354.706 601.252 378.784 552.06V552.06L387.456 526.328C400.811 486.701 434.597 457.428 475.722 449.852L492.294 446.799C526.321 440.53 553.607 415.067 562.211 381.555L565.826 367.473C574.689 332.951 607.494 310.125 642.944 313.814L647.5 314.288C683.486 318.033 715.975 292.608 720.991 256.777L722.981 242.564C728.058 206.304 765.967 184.566 799.825 198.5V198.5C829.538 210.727 863.428 195.526 874.055 165.203L876.924 157.017C885.954 131.25 910.279 114 937.583 114L954 114" stroke="#C9F31D" stroke-opacity="0.3" stroke-dasharray="16 16"/>
<path opacity="0.939" fill-rule="evenodd" clip-rule="evenodd" d="M948.421 100.185C961.882 100.852 975.343 101.519 988.804 102.186C989.174 102.536 989.231 102.937 988.974 103.39C987.835 104.922 986.642 106.411 985.395 107.857C984.388 107.888 984.118 107.461 984.584 106.575C985.151 105.82 985.739 105.083 986.35 104.363C986.414 104.305 986.417 104.244 986.359 104.18C978.7 106.347 971.034 108.496 963.36 110.627C967.437 113.144 971.513 115.66 975.59 118.177C977.935 115.177 980.291 112.182 982.66 109.193C983.637 109.047 983.94 109.445 983.567 110.387C981.137 113.539 978.696 116.683 976.245 119.819C975.933 119.976 975.627 119.961 975.327 119.773C973.316 118.505 971.293 117.256 969.257 116.024C966.138 117.977 963.035 119.954 959.946 121.954C959.292 122.178 958.889 121.959 958.737 121.296C958.273 116.517 957.789 111.742 957.285 106.97C954.278 105.15 951.27 103.33 948.263 101.511C947.9 101.007 947.953 100.565 948.421 100.185ZM951.739 101.913C960.877 102.258 970.025 102.696 979.184 103.227C972.225 104.05 965.268 104.886 958.312 105.733C956.109 104.478 953.918 103.205 951.739 101.913ZM978.186 104.787C978.313 104.778 978.435 104.8 978.551 104.851C972.767 106.465 966.982 108.079 961.198 109.693C960.925 109.829 960.776 110.051 960.751 110.36C960.415 112.183 960.08 114.006 959.744 115.828C959.387 112.94 959.086 110.043 958.841 107.139C965.307 106.4 971.755 105.616 978.186 104.787ZM962.023 111.619C963.954 112.738 965.859 113.906 967.737 115.121C965.38 116.681 963.003 118.218 960.608 119.734C961.033 117.039 961.505 114.334 962.023 111.619Z" fill="#C9F31D" fill-opacity="0.3"/>
</svg>
